X: 26382
T: Merry Blacksmith, The
R: reel
M: 4/4
K: Dmajor
|:AB|d2dA BAFA|ABdA BAFA|ABde f2ed|Beed egfe|
d2dA BAFA|ABdA BAFA|ABde f2ec|dBAF D2:|
|:fg|a2ag f2fe|d2dA BAFA|ABde f2ed|Beed egfe|
a2ag f2fe|d2dA BAFA|ABde f2ec|dBAF D2:|

